src/assets/img/icons/duotone-icons/Text/Align-right.svg

<?xml version="1.0" encoding="UTF-8"?>
<svg width="24px" height="24px" viewBox="0 0 24 24" version="1.1" xmlns="http://www.w3.org/2000/svg" xmlns:xlink="http://www.w3.org/1999/xlink">
    <!-- Generator: Sketch 52.2 (67145) - http://www.bohemiancoding.com/sketch -->
    <title>Stockholm-icons / Text / Align-right</title>
    <desc>Created with Sketch.</desc>
    <g id="Stockholm-icons-/-Text-/-Align-right" stroke="none" stroke-width="1" fill="none" fill-rule="evenodd">
        <rect id="bound" x="0" y="0" width="24" height="24"></rect>
        <path d="M5,5 L19,5 C19.5522847,5 20,5.44771525 20,6 C20,6.55228475 19.5522847,7 19,7 L5,7 C4.44771525,7 4,6.55228475 4,6 C4,5.44771525 4.44771525,5 5,5 Z M5,13 L19,13 C19.5522847,13 20,13.4477153 20,14 C20,14.5522847 19.5522847,15 19,15 L5,15 C4.44771525,15 4,14.5522847 4,14 C4,13.4477153 4.44771525,13 5,13 Z" id="Combined-Shape" fill="#335EEA" opacity="0.3"></path>
        <path d="M11,9 L19,9 C19.5522847,9 20,9.44771525 20,10 C20,10.5522847 19.5522847,11 19,11 L11,11 C10.4477153,11 10,10.5522847 10,10 C10,9.44771525 10.4477153,9 11,9 Z M11,17 L19,17 C19.5522847,17 20,17.4477153 20,18 C20,18.5522847 19.5522847,19 19,19 L11,19 C10.4477153,19 10,18.5522847 10,18 C10,17.4477153 10.4477153,17 11,17 Z" id="Combined-Shape" fill="#335EEA"></path>
    </g>
</svg>

<svg width="24" height="24" viewBox="0 0 24 24" xmlns="http://www.w3.org/2000/svg"><g fill="none" fill-rule="evenodd"><path d="M0 0h24v24H0z"/><path d="M5 5h14a1 1 0 010 2H5a1 1 0 110-2zm0 8h14a1 1 0 010 2H5a1 1 0 010-2z" fill="#335EEA" opacity=".3"/><path d="M11 9h8a1 1 0 010 2h-8a1 1 0 010-2zm0 8h8a1 1 0 010 2h-8a1 1 0 010-2z" fill="#335EEA"/></g></svg>
